exported-svg/corner-left-up.svg

<svg height="24" viewBox="0 0 24 24" width="24" xmlns="http://www.w3.org/2000/svg"><path d="m9 5.70710678-4.14644661 4.14644661c-.19526215.19526211-.51184463.19526211-.70710678 0-.19526215-.19526215-.19526215-.51184463 0-.70710678l5-5c.19526215-.19526215.51184463-.19526215.70710678 0l5.00000001 5c.1952621.19526215.1952621.51184463 0 .70710678-.1952622.19526211-.5118446.19526211-.7071068 0l-4.1464466-4.14644661v10.79289322c0 1.9329966 1.5670034 3.5 3.5 3.5h7c.2761424 0 .5.2238576.5.5s-.2238576.5-.5.5h-7c-2.4852814 0-4.5-2.0147186-4.5-4.5z"/></svg>

<?xml version="1.0" encoding="UTF-8"?>
<svg width="24px" height="24px" viewBox="0 0 24 24" version="1.1" xmlns="http://www.w3.org/2000/svg" xmlns:xlink="http://www.w3.org/1999/xlink">
    <!-- Generator: Sketch 55.2 (78181) - https://sketchapp.com -->
    <title>corner-left-up</title>
    <desc>Created with Sketch.</desc>
    <g id="corner-left-up" stroke="none" stroke-width="1" fill="none" fill-rule="evenodd">
        <path d="M9,5.70710678 L4.85355339,9.85355339 C4.65829124,10.0488155 4.34170876,10.0488155 4.14644661,9.85355339 C3.95118446,9.65829124 3.95118446,9.34170876 4.14644661,9.14644661 L9.14644661,4.14644661 C9.34170876,3.95118446 9.65829124,3.95118446 9.85355339,4.14644661 L14.8535534,9.14644661 C15.0488155,9.34170876 15.0488155,9.65829124 14.8535534,9.85355339 C14.6582912,10.0488155 14.3417088,10.0488155 14.1464466,9.85355339 L10,5.70710678 L10,16.5 C10,18.4329966 11.5670034,20 13.5,20 L20.5,20 C20.7761424,20 21,20.2238576 21,20.5 C21,20.7761424 20.7761424,21 20.5,21 L13.5,21 C11.0147186,21 9,18.9852814 9,16.5 L9,5.70710678 Z" id="Combined-Shape" fill="#000000" fill-rule="nonzero"></path>
    </g>
</svg>
